X: 3458
T: Betty Black
R: barndance
M: 4/4
K: Dmajor
|:GFED F2 A2|GFED [A,2A2] D2|GFED F2 A2|E2 A2 D4:|
|:fefg a2 A2|BABc d2 A2|fefg a2 A2|B2 c2 d4:|
|:F4 F4|E2 EF GFED|FGAB AGFE|D2 d2 d4:|
|:f4 f3 f|g2 g2 f3 f|g2 g2 f2 f2|e2 e2 d4:|
|:fedc d2 A2|FAAB A4|fedc d2 A2|FAAF D4:|
|:fgab agfe|dcde dcBA|fgab agfg|a2 A2 d4:|

